icons/TopCoder.svg

<?xml version="1.0" encoding="UTF-8"?>
<svg version="1.1" viewBox="0 0.016 49.015 16.693" xmlns="http://www.w3.org/2000/svg">
<!-- Extracted from logo_topcoder.svg -->
<path fill="#2AA7DF" d="M12.4577477,5.4603671 C6.70453397,4.42937966 1.28350422,4.51815325 0.194765437,7.40410847 C-0.572876839,9.43855774 0.997753698,12.5080989 3.69401789,15.537363 C4.48917538,16.4306116 5.40917758,16.7153994 6.27352377,16.7093075 C7.07275671,12.7374751 10.2608682,8.49314849 12.4577477,5.4603671 Z"/>
<path fill="#8AC441" d="M25.7422085,8.54573795 C28.6961661,7.35014317 32.7144305,6.15182287 36.5819458,5.45923796 C36.7798229,5.65032719 36.9743769,5.8462618 37.1662119,6.04552759 C33.5787456,2.31580488 28.9272745,0.0163744967 24.5159748,0.0163744967 C20.3406171,0.0163744967 15.9498603,2.07626195 12.4500037,5.45923796 C16.317519,6.15182287 20.3357834,7.35014317 23.289741,8.54573795 C23.6634417,8.69715573 24.0755094,8.85977842 24.5159748,9.03209185 C24.9564401,8.85977842 25.3685078,8.69715573 25.7422085,8.54573795 Z"/>
<path fill="#0A72B8" d="M12.4562753,5.46419658 C9.42002608,8.43247007 6.26725224,14.2470578 6.26725224,16.706084 C7.31477558,16.7060836 8.5648659,16.2004106 9.46651534,15.7342571 C13.9594775,13.4113921 18.602869,9.64368071 24.4899553,9.03060745 C21.500509,7.7265862 15.7294554,5.90319333 12.4562753,5.46419658 Z"/>
<path fill="#F59022" d="M36.590903,5.45427912 C42.3314446,4.42974077 47.7332522,4.52384597 48.8198434,7.40410847 C49.5874857,9.43855774 48.0168552,12.5080989 45.320591,15.537363 C44.5938878,16.3537127 43.7629102,16.6618557 42.9654396,16.7042108 C40.4648081,11.4959232 39.9433362,10.5583457 36.590903,5.45427912 Z"/>
<path fill="#FFF100" d="M36.5858087,5.45756365 C39.6220579,8.42583713 42.9754439,16.706084 42.9754439,16.706084 C41.5265001,16.7669989 40.1183583,15.9597042 39.7033689,15.7215632 C33.4725595,12.146023 29.59554,9.70006226 24.5030545,9.03209916 C27.5367177,7.58995531 34.1590967,5.76005128 36.5858087,5.45756365 Z"/>
</svg>

<?xml version="1.0" encoding="UTF-8"?>
<svg version="1.1" viewBox="0 0 49.014 16.693" xmlns="http://www.w3.org/2000/svg">
<!-- Extracted from logo_topcoder.svg -->
<path fill="#2AA7DF" d="m12.458 5.4443c-5.7535-1.031-11.174-0.9422-12.263 1.9437-0.76788 2.0345 0.80275 5.1039 3.499 8.1329 0.7952 0.894 1.7152 1.178 2.5795 1.172 0.7993-3.972 3.9875-8.2159 6.1845-11.249z"/>
<path fill="#8AC441" d="m25.742 8.5296c2.954-1.1956 6.972-2.3939 10.84-3.0865 0.198 0.1911 0.392 0.3871 0.584 0.5863-3.587-3.7297-8.239-6.0291-12.65-6.0291-4.175-0.000026-8.566 2.0599-12.066 5.4428 3.868 0.6926 7.886 1.8909 10.84 3.0865 0.373 0.1515 0.786 0.3141 1.226 0.4864 0.44-0.1723 0.853-0.3349 1.226-0.4864z"/>
<path fill="#0A72B8" d="m12.456 5.4481c-3.036 2.9683-6.1887 8.7828-6.1887 11.242 1.0475 0 2.2976-0.506 3.1992-0.972 4.4925-2.323 9.1365-6.0903 15.024-6.7034-2.989-1.304-8.761-3.1274-12.034-3.5664z"/>
<path fill="#F59022" d="m36.591 5.4382c5.74-1.0246 11.142-0.9305 12.229 1.9498 0.767 2.0345-0.803 5.1039-3.499 8.1329-0.727 0.817-1.558 1.125-2.356 1.167-2.5-5.208-3.022-6.146-6.374-11.25z"/>
<path fill="#FFF100" d="m36.586 5.4415c3.036 2.9682 6.389 11.248 6.389 11.248-1.448 0.061-2.857-0.746-3.272-0.984-6.23-3.576-10.107-6.0219-15.2-6.6899 3.034-1.4421 9.656-3.272 12.083-3.5745z"/>
</svg>
